X:7
T:Man You Don't Meet Everyday
C:Traditional
S:The Pogues
K:A
M:3/4
L:1/8
AB | c3e ec | B4 AB | c2 a2 g2 | f4 fg |
a3f e2 | B4 AB | c3e ec | B4 AB | 
c3e ec | B4 AB | c2 a2 g2 | f4 fg | 
a3f e2 | B4 AB | (A6 | A4) :|
%%begintext
Arragned mandolin part
%%endtext
M:3/4
AB | cE dE cE | BA FG AB | cE ac gc | fe de fg |
ag fe dc | BA FG AB | cE dE cE | BA FG AB | 
cE dE cE | BA FG AB | cE ac gc | fe de fg | 
ag fe dc | BA FG AB | A3B AG | A4 :|
%%textfont Times-Roman 28
%%begintext
My name is Jock Stewart, I'm a crafty young boy
And a roving young fellow I have been
So be easy and free when you're drinking with me
I'm a man you don't meet everyday

I have acres of land, I have men I command
I have always a shilling to spare
So be easy and free when you're drinking with me
I'm a man you don't meet everyday

So fill up your glasses with brandy and wine
Whatever it costs I will pay
So be easy and free when you're drinking with me
I'm a man you don't meet everyday

I went out with my dog, and with him I did shoot
All down in the county kildare
So be easy and free when you're drinking with me
I'm a man you don't meet everyday

So fill up your glasses with brandy and wine
Whatever it costs I will pay
So be easy and free when you're drinking with me
I'm a man you don't meet everyday
%%endtext
%%newpage


